icons/icn_descargasContactlink.svg

<svg width="24" xmlns="http://www.w3.org/2000/svg" height="24" id="screenshot-62f3a77a-6931-802e-8006-9c1c0d992288" viewBox="0 0 24 24" xmlns:xlink="http://www.w3.org/1999/xlink" fill="none" version="1.1"><g id="shape-62f3a77a-6931-802e-8006-9c1c0d992288"><g class="frame-container-wrapper"><g class="frame-container-blur"><g class="frame-container-shadows"><g fill="none"><g class="fills" id="fills-62f3a77a-6931-802e-8006-9c1c0d992288"><rect rx="0" ry="0" x="0" y="0" width="24" height="24.000000000000455" transform="matrix(1, 0, 0, 1, 0, 0)" class="frame-background"/></g><g class="frame-children"><g id="shape-62f3a77a-6931-802e-8006-9c1c38a9a78e" rx="0" ry="0"><g id="shape-62f3a77a-6931-802e-8006-9c1b57d74e18"><g class="fills" id="fills-62f3a77a-6931-802e-8006-9c1b57d74e18"><path d="M10.125048637390137,0L13.875048637390137,0C14.498583793640137,0,15.000048637390137,0.5015869140625,15.000048637390137,1.125L15.000048637390137,9L19.110889434814453,9C19.945362091064453,9,20.362598419189453,10.0078125,19.772022247314453,10.598388671875L12.642138481140137,17.7327880859375C12.290575981140137,18.0843505859375,11.714159965515137,18.0843505859375,11.362597465515137,17.7327880859375L4.223437309265137,10.598388671875C3.632861375808716,10.0078125,4.050097465515137,9,4.884325981140137,9L9.000048637390137,9L9.000048637390137,1.125C9.000048637390137,0.5015869140625,9.501513481140137,0,10.125048637390137,0ZM24.000049591064453,17.625L24.000049591064453,22.875C24.000049591064453,23.4984130859375,23.498584747314453,24,22.875049591064453,24L1.1250488758087158,24C0.501513659954071,24,0.00004882812572759576,23.4984130859375,0.00004882812572759576,22.875L0.00004882812572759576,17.625C0.00004882812572759576,17.0015869140625,0.501513659954071,16.5,1.1250488758087158,16.5L8.001513481140137,16.5L10.298388481140137,18.796875C11.240771293640137,19.739013671875,12.759325981140137,19.739013671875,13.701708793640137,18.796875L15.998583793640137,16.5L22.875049591064453,16.5C23.498584747314453,16.5,24.000049591064453,17.0015869140625,24.000049591064453,17.625ZM18.187549591064453,21.75C18.187549591064453,21.234375,17.765674591064453,20.8125,17.250049591064453,20.8125C16.734424591064453,20.8125,16.312549591064453,21.234375,16.312549591064453,21.75C16.312549591064453,22.265625,16.734424591064453,22.6875,17.250049591064453,22.6875C17.765674591064453,22.6875,18.187549591064453,22.265625,18.187549591064453,21.75ZM21.187549591064453,21.75C21.187549591064453,21.234375,20.765674591064453,20.8125,20.250049591064453,20.8125C19.734424591064453,20.8125,19.312549591064453,21.234375,19.312549591064453,21.75C19.312549591064453,22.265625,19.734424591064453,22.6875,20.250049591064453,22.6875C20.765674591064453,22.6875,21.187549591064453,22.265625,21.187549591064453,21.75Z" style="fill: rgb(0, 0, 0); fill-opacity: 1;"/></g></g></g></g></g></g></g></g></g></svg>

<svg fill="none" viewBox="0 0 24 24"><g class="frame-container-wrapper"><g class="frame-container-blur"><g class="frame-container-shadows"><g class="fills"><rect width="24" height="24" class="frame-background" rx="0" ry="0"/></g><g class="frame-children"><path fill="#000" d="M10.125 0h3.75C14.4986 0 15 .5016 15 1.125V9h4.1109c.8345 0 1.2517 1.0078.6611 1.5984l-7.1299 7.1344c-.3515.3516-.928.3516-1.2795 0l-7.1392-7.1344C3.633 10.0078 4.0501 9 4.8844 9H9V1.125C9 .5016 9.5015 0 10.125 0ZM24 17.625v5.25c0 .6234-.5014 1.125-1.125 1.125H1.125A1.1223 1.1223 0 0 1 0 22.875v-5.25c0-.6234.5015-1.125 1.125-1.125h6.8765l2.2969 2.2969c.9424.9421 2.461.9421 3.4033 0L15.9986 16.5h6.8764c.6236 0 1.125.5016 1.125 1.125Zm-5.8125 4.125c0-.5156-.4218-.9375-.9375-.9375-.5156 0-.9375.4219-.9375.9375 0 .5156.422.9375.9375.9375.5157 0 .9375-.4219.9375-.9375Zm3 0c0-.5156-.4218-.9375-.9375-.9375-.5156 0-.9375.4219-.9375.9375 0 .5156.422.9375.9375.9375.5157 0 .9375-.4219.9375-.9375Z" class="fills"/></g></g></g></g></svg>
